X: 19662
T: Jemmy Duffy's
R: barndance
M: 4/4
K: Cmajor
C3 A GEEF|GEcE GEDE|C3 A AGAB|cAGE D2 DE|
C3 A GEEF|GEcE GEDE|C3 A AGAB|cAGE D4||
e2 ce d2 AB|cBcA GE E2|e2 ce d2 AB|cAGE D4|
e2 ce d2 AB|cBcA GE E2|e2 ce dAAB|cAGE D4||

